X: 747
T: Cuen xuan
%%abc-version 2.0
%%abcx-abcm2ps-target-version 5.9.1 (29 Sep 2008)
%%abc-creator hum2abc beta
%%abcx-conversion-date 2013/10/02 07:52:30
%%abc-edited-by Helmut Schaffrath
%%humdrum-veritas 2723969441
%%humdrum-veritas-data 509670754
%%continueall 1
%%barnumbers 0
L: 1/8
M: 4/4
K: F
A2A c d f d c [I:setbarnb 1]| 
A2A FG4 | 
A2A c d f d c | 
A2A FG4 | 
A A A FG4 | 
A2A FG4 | 
c2A Gc2A G | 
F2G ED4 |]  



